assets/img/braze_icons/image-indent-left.svg

<svg fill="none" height="24" viewBox="0 0 24 24" width="24" xmlns="http://www.w3.org/2000/svg"><g fill="#801ed7"><path d="m3 3c-.55228 0-1 .44772-1 1s.44772 1 1 1h18c.5523 0 1-.44772 1-1s-.4477-1-1-1z"/><path d="m15 8.25c-.5523 0-1 .44772-1 1s.4477 1 1 1h6c.5523 0 1-.44772 1-1s-.4477-1-1-1z"/><path d="m14 14.75c0-.5523.4477-1 1-1h6c.5523 0 1 .4477 1 1s-.4477 1-1 1h-6c-.5523 0-1-.4477-1-1z"/><path d="m3 19c-.55228 0-1 .4477-1 1s.44772 1 1 1h18c.5523 0 1-.4477 1-1s-.4477-1-1-1z"/><path d="m4.56811 7c-.25238-.00003-.49818-.00006-.70633.01695-.2286.01868-.49833.06274-.76976.20104-.37632.19175-.68228.49771-.87403.87403-.1383.27143-.18236.54116-.20104.76976-.01701.20815-.01698.45394-.01695.70631v4.86381c-.00003.2524-.00006.4982.01695.7063.01868.2286.06274.4984.20104.7698.19175.3763.49771.6823.87403.874.27143.1383.54116.1824.76976.2011.20816.017.45396.0169.70634.0169h4.86377c.25239 0 .49818.0001.70631-.0169.2286-.0187.4984-.0628.7698-.2011.3763-.1917.6823-.4977.874-.874.1383-.2714.1824-.5412.2011-.7698.017-.2081.0169-.4539.0169-.7063v-4.86378c0-.25238.0001-.49818-.0169-.70634-.0187-.2286-.0628-.49833-.2011-.76976-.1917-.37632-.4977-.68228-.874-.87403-.2714-.1383-.5412-.18236-.7698-.20104-.20812-.01701-.45391-.01698-.70628-.01695z"/></g></svg>

<svg width="24" height="24" viewBox="0 0 24 24" fill="none" xmlns="http://www.w3.org/2000/svg">
<path d="M3 3C2.44772 3 2 3.44772 2 4C2 4.55228 2.44772 5 3 5H21C21.5523 5 22 4.55228 22 4C22 3.44772 21.5523 3 21 3H3Z" fill="#801ED7"/>
<path d="M15 8.25C14.4477 8.25 14 8.69772 14 9.25C14 9.80228 14.4477 10.25 15 10.25H21C21.5523 10.25 22 9.80228 22 9.25C22 8.69772 21.5523 8.25 21 8.25H15Z" fill="#801ED7"/>
<path d="M14 14.75C14 14.1977 14.4477 13.75 15 13.75H21C21.5523 13.75 22 14.1977 22 14.75C22 15.3023 21.5523 15.75 21 15.75H15C14.4477 15.75 14 15.3023 14 14.75Z" fill="#801ED7"/>
<path d="M3 19C2.44772 19 2 19.4477 2 20C2 20.5523 2.44772 21 3 21H21C21.5523 21 22 20.5523 22 20C22 19.4477 21.5523 19 21 19H3Z" fill="#801ED7"/>
<path d="M4.56811 7C4.31573 6.99997 4.06993 6.99994 3.86178 7.01695C3.63318 7.03563 3.36345 7.07969 3.09202 7.21799C2.7157 7.40974 2.40974 7.7157 2.21799 8.09202C2.07969 8.36345 2.03563 8.63318 2.01695 8.86178C1.99994 9.06993 1.99997 9.31572 2 9.56809L2 14.4319C1.99997 14.6843 1.99994 14.9301 2.01695 15.1382C2.03563 15.3668 2.07969 15.6366 2.21799 15.908C2.40974 16.2843 2.7157 16.5903 3.09202 16.782C3.36345 16.9203 3.63318 16.9644 3.86178 16.9831C4.06994 17.0001 4.31574 17 4.56812 17H9.43189C9.68428 17 9.93007 17.0001 10.1382 16.9831C10.3668 16.9644 10.6366 16.9203 10.908 16.782C11.2843 16.5903 11.5903 16.2843 11.782 15.908C11.9203 15.6366 11.9644 15.3668 11.9831 15.1382C12.0001 14.9301 12 14.6843 12 14.4319V9.56812C12 9.31574 12.0001 9.06994 11.9831 8.86178C11.9644 8.63318 11.9203 8.36345 11.782 8.09202C11.5903 7.7157 11.2843 7.40974 10.908 7.21799C10.6366 7.07969 10.3668 7.03563 10.1382 7.01695C9.93008 6.99994 9.68429 6.99997 9.43192 7H4.56811Z" fill="#801ED7"/>
</svg>
